!!!OTL: ICH KOMME VOM GEBIRGE HER
!!!ARE: Europa, Mitteleuropa, Deutschland, Thueringen
!!!SCT: B0661A
!!!YEM: Copyright 1995, estate of Helmut Schaffrath.
**kern
*ICvox
*Ivox
*M3/4
*k[]
*C:
{8g
=1
8a
8g
4.ee
8g
=2
8.a
16g
4d
8r}
{8g
=3
8a
8g
4.e
8g
=4
8a
8g
4d
8r}
{8b
=5
8cc
8e
4.e
8cc
=6
8.b
16a
4a
8r}
{8g
=7
8.ee
16cc
8g
8e
8f
8d
=8
2c
8r}
==
!!!AGN: Moral - Lied, Einsamkeit
!!!ONB: ESAC (Essen Associative Code) Database: BOEHME
!!!AMT: simple triple
!!!AIN: vox
!!!EED: Helmut Schaffrath
!!!EEV: 1.0
*-
